apps/64/application_icon.svg

<svg xmlns="http://www.w3.org/2000/svg" style="isolation:isolate" width="256" height="256"><g filter="url(#a)"><linearGradient id="b" x1=".733" y1="1.071" x2=".267" y2=".076" gradientTransform="matrix(244.648 0 0 228.338 5.676 11.947)" gradientUnits="userSpaceOnUse"><stop offset="0%" stop-color="#f37e40"/><stop offset="100%" stop-color="#f34f17"/></linearGradient><path d="M165.685 11.947c74.055 0 84.639 10.557 84.639 84.544v59.251c0 73.986-10.584 84.543-84.639 84.543h-75.37c-74.055 0-84.639-10.557-84.639-84.543V96.491c0-73.987 10.584-84.544 84.639-84.544h75.37z" fill="url(#b)"/></g><defs><filter id="a" x="-200%" y="-200%" width="400%" height="400%" filterUnits="objectBoundingBox" color-interpolation-filters="sRGB"><feGaussianBlur xmlns="http://www.w3.org/2000/svg" in="SourceGraphic" stdDeviation="4.294"/><feOffset xmlns="http://www.w3.org/2000/svg" dy="4" result="pf_100_offsetBlur"/><feFlood xmlns="http://www.w3.org/2000/svg" flood-color="#000" flood-opacity=".4"/><feComposite xmlns="http://www.w3.org/2000/svg" in2="pf_100_offsetBlur" operator="in" result="pf_100_dropShadow"/><feBlend xmlns="http://www.w3.org/2000/svg" in="SourceGraphic" in2="pf_100_dropShadow"/></filter></defs><path d="M5.676 126.116v29.626c0 73.986 10.584 84.543 84.639 84.543h75.37c74.055 0 84.639-10.557 84.639-84.543v-29.626H5.676z" fill="#FFF" opacity=".1"/><path d="M128 11.947v228.338h37.685c74.055 0 84.639-10.557 84.639-84.543V96.491c0-73.987-10.584-84.544-84.639-84.544H128z" fill="#FFF" opacity=".2"/><defs><filter id="c" x="-200%" y="-200%" width="400%" height="400%" filterUnits="objectBoundingBox" color-interpolation-filters="sRGB"><feGaussianBlur xmlns="http://www.w3.org/2000/svg" stdDeviation="2.577"/></filter></defs><path d="M133.934 194.53c-2.606-3.927-4.739-7.699-4.739-8.384 0-.684 4.696-1.928 10.435-2.764 18.57-2.707 33.908-12.056 37.943-23.129 6.083-16.692-4.523-33.581-23.52-37.453-3.245-.661-3.863.003-8.365 8.99-6.306 12.59-13.924 23.803-22.104 32.537-5.871 6.269-6.466 7.446-5.666 11.213 2.74 12.899 3.14 11.866-6.075 15.657l-8.371 3.444-.779-3.604c-1.345-6.226-2.214-6.752-6.843-4.142-11.165 6.296-25.444 6.684-31.727.861-10.951-10.148-5.738-35.252 10.819-52.101 4.083-4.155 10.782-9.693 14.887-12.306l7.464-4.752.942-10.047c.517-5.526.522-10.466.009-10.977-.513-.512-7.709-.718-15.991-.46l-15.058.471-.018-5.747c-.01-3.161-.371-7.065-.803-8.675-.777-2.899-.621-2.931 16.137-3.298l16.922-.37 1.924-12.32 1.923-12.32 3.888.778c2.139.427 6.076.777 8.749.777h4.86l-1.082 10.099c-.595 5.555-.773 10.408-.396 10.786.913.912 18.107-1.66 33.552-5.02 14.339-3.12 14.547-3.015 14.578 7.368l.021 6.744-18.798 3.47c-10.339 1.909-21.766 3.923-25.393 4.476l-6.596 1.007-.401 7.738c-.399 7.71-.388 7.735 2.969 6.893 1.854-.465 6.189-1.213 9.635-1.662 7.749-1.01 9.269-2.164 10.334-7.84.943-5.026 1.129-5.074 11.565-2.978l7.5 1.506-.815 4.345c-.787 4.197-.641 4.378 4.262 5.282 15.027 2.771 30.17 15.592 34.007 28.792 5.82 20.02-1.842 40.713-19.111 51.615-6.528 4.121-19.227 9.233-25.729 10.357a463.267 463.267 0 0 0-8.701 1.591c-3.073.607-4.088-.187-8.244-6.448zm-49.696-20.687c2.472-.709 6.847-2.92 9.724-4.913l5.229-3.624-.908-13.197c-.5-7.258-1.226-13.506-1.612-13.884-1.159-1.135-14.292 13.697-16.79 18.962-3.852 8.117-4.496 17.945-1.175 17.945.571 0 3.061-.58 5.532-1.289zm36.306-32.028c1.408-2.353 4.225-7.472 6.258-11.376l3.698-7.097-4.28.716c-2.354.393-5.913 1.346-7.908 2.117-3.48 1.345-3.627 1.779-3.627 10.669 0 10.503 1.689 11.936 5.859 4.971z" fill-rule="evenodd" opacity=".3" filter="url(#c)"/><path d="M133.934 194.53c-2.606-3.927-4.739-7.699-4.739-8.384 0-.684 4.696-1.928 10.435-2.764 18.57-2.707 33.908-12.056 37.943-23.129 6.083-16.692-4.523-33.581-23.52-37.453-3.245-.661-3.863.003-8.365 8.99-6.306 12.59-13.924 23.803-22.104 32.537-5.871 6.269-6.466 7.446-5.666 11.213 2.74 12.899 3.14 11.866-6.075 15.657l-8.371 3.443-.779-3.603c-1.345-6.226-2.214-6.752-6.843-4.142-11.165 6.296-25.444 6.684-31.727.861-10.951-10.148-5.738-35.252 10.819-52.101 4.083-4.155 10.782-9.693 14.888-12.306l7.463-4.752.942-10.047c.517-5.526.522-10.466.009-10.977-.513-.512-7.708-.718-15.99-.46l-15.059.471-.018-5.747c-.01-3.161-.371-7.065-.803-8.675-.777-2.899-.621-2.931 16.137-3.298l16.922-.37 1.924-12.32 1.923-12.32 3.888.778c2.139.427 6.076.777 8.749.777h4.86l-1.082 10.099c-.595 5.555-.773 10.408-.396 10.786.913.912 18.107-1.66 33.552-5.02 14.339-3.12 14.547-3.015 14.578 7.368l.021 6.744-18.798 3.47c-10.339 1.909-21.766 3.923-25.394 4.476l-6.595 1.007-.401 7.738c-.399 7.71-.388 7.735 2.969 6.893 1.854-.465 6.189-1.213 9.635-1.662 7.749-1.01 9.269-2.164 10.334-7.84.943-5.026 1.129-5.074 11.565-2.978l7.5 1.506-.815 4.345c-.788 4.197-.641 4.378 4.262 5.282 15.027 2.771 30.17 15.592 34.007 28.792 5.82 20.02-1.842 40.713-19.111 51.615-6.528 4.121-19.228 9.233-25.729 10.357a463.267 463.267 0 0 0-8.701 1.591c-3.074.607-4.088-.187-8.244-6.448zm-49.696-20.687c2.472-.709 6.847-2.92 9.724-4.913l5.229-3.624-.908-13.197c-.5-7.258-1.226-13.506-1.612-13.885-1.159-1.134-14.292 13.698-16.79 18.963-3.852 8.117-4.496 17.945-1.175 17.945.571 0 3.061-.58 5.532-1.289zm36.306-32.028c1.408-2.353 4.225-7.472 6.258-11.376l3.698-7.097-4.28.716c-2.354.393-5.913 1.346-7.908 2.117-3.48 1.345-3.627 1.779-3.627 10.669 0 10.503 1.689 11.936 5.859 4.971z" fill-rule="evenodd" fill="#FFF"/><g opacity=".4"><linearGradient id="d" x1=".517" x2=".517" y2="1" gradientTransform="matrix(244.65 0 0 228.34 5.68 11.95)" gradientUnits="userSpaceOnUse"><stop offset="0%" stop-color="#fff"/><stop offset="12.5%" stop-opacity=".098" stop-color="#fff"/><stop offset="92.5%" stop-opacity=".098"/><stop offset="100%" stop-opacity=".498"/></linearGradient><path d="M165.068 11.951c4.328-.01 8.656.04 12.984.138 3.875.078 7.75.226 11.626.452 3.453.196 6.905.481 10.348.854 3.06.335 6.118.786 9.148 1.346a80.47 80.47 0 0 1 8.046 1.916 53.64 53.64 0 0 1 7.023 2.584 40.413 40.413 0 0 1 6.06 3.35 35.176 35.176 0 0 1 5.134 4.215 35.072 35.072 0 0 1 4.22 5.119 41.692 41.692 0 0 1 3.363 6.042 55.982 55.982 0 0 1 2.597 7.005 80.224 80.224 0 0 1 1.918 8.037 124.43 124.43 0 0 1 1.348 9.127c.374 3.439.659 6.878.856 10.326.226 3.861.373 7.732.462 11.593.088 4.323.138 8.646.128 12.96v58.21c.01 4.324-.04 8.637-.128 12.96a325.177 325.177 0 0 1-.462 11.593 200.984 200.984 0 0 1-.856 10.326 124.691 124.691 0 0 1-1.348 9.137 80.687 80.687 0 0 1-1.918 8.027 55.414 55.414 0 0 1-2.597 7.005 41.18 41.18 0 0 1-3.364 6.042 34.559 34.559 0 0 1-4.22 5.119 35.177 35.177 0 0 1-5.134 4.215 40.412 40.412 0 0 1-6.059 3.35 55.138 55.138 0 0 1-7.023 2.594 77.806 77.806 0 0 1-8.046 1.906 120 120 0 0 1-9.148 1.346c-3.443.373-6.895.658-10.348.854-3.875.226-7.75.374-11.626.462-4.328.088-8.656.138-12.984.128H90.942c-4.328.01-8.656-.04-12.984-.128a328.387 328.387 0 0 1-11.626-.462 203.003 203.003 0 0 1-10.348-.854 120 120 0 0 1-9.148-1.346 77.806 77.806 0 0 1-8.046-1.906 55.139 55.139 0 0 1-7.023-2.594 40.413 40.413 0 0 1-6.06-3.35 35.176 35.176 0 0 1-5.134-4.215 34.56 34.56 0 0 1-4.22-5.119 41.183 41.183 0 0 1-3.363-6.042 55.415 55.415 0 0 1-2.597-7.005 80.682 80.682 0 0 1-1.918-8.027 124.688 124.688 0 0 1-1.348-9.137 200.993 200.993 0 0 1-.856-10.326 325.212 325.212 0 0 1-.462-11.593 569.197 569.197 0 0 1-.128-12.96v-58.21c-.01-4.314.04-8.637.128-12.96.089-3.86.236-7.732.462-11.593.197-3.448.482-6.887.856-10.326.335-3.055.787-6.101 1.348-9.127a80.219 80.219 0 0 1 1.918-8.037 55.983 55.983 0 0 1 2.597-7.005 41.695 41.695 0 0 1 3.364-6.042 35.072 35.072 0 0 1 4.22-5.119 35.176 35.176 0 0 1 5.134-4.215 40.413 40.413 0 0 1 6.059-3.35 53.64 53.64 0 0 1 7.023-2.584 80.47 80.47 0 0 1 8.046-1.916 125.11 125.11 0 0 1 9.148-1.346c3.443-.373 6.895-.658 10.348-.854 3.875-.226 7.75-.374 11.626-.452 4.328-.098 8.656-.148 12.984-.138h74.126zm.01 4.009c4.298-.01 8.597.039 12.895.127 3.827.089 7.653.236 11.48.452 3.383.197 6.766.472 10.13.845 2.971.315 5.932.747 8.863 1.297a75.943 75.943 0 0 1 7.653 1.818 50.493 50.493 0 0 1 6.501 2.397 37.038 37.038 0 0 1 5.47 3.026 30.383 30.383 0 0 1 4.524 3.724 31.05 31.05 0 0 1 3.738 4.519 37.271 37.271 0 0 1 3.03 5.443 51.46 51.46 0 0 1 2.4 6.494 75.563 75.563 0 0 1 1.829 7.634c.54 2.928.974 5.875 1.298 8.842.374 3.36.65 6.73.846 10.11.217 3.822.374 7.634.453 11.456.088 4.293.137 8.577.137 12.87v58.212c0 4.293-.049 8.577-.137 12.87a317.503 317.503 0 0 1-.453 11.456c-.196 3.38-.472 6.75-.846 10.12a121.689 121.689 0 0 1-1.298 8.832 75.562 75.562 0 0 1-1.83 7.634 50.902 50.902 0 0 1-2.4 6.494 36.767 36.767 0 0 1-3.03 5.443 30.615 30.615 0 0 1-3.737 4.53 30.938 30.938 0 0 1-4.525 3.713 37.038 37.038 0 0 1-5.469 3.026 49.07 49.07 0 0 1-6.501 2.397 75.942 75.942 0 0 1-7.653 1.818c-2.931.55-5.892.982-8.863 1.306-3.364.364-6.747.649-10.13.836-3.827.216-7.653.373-11.48.452-4.298.098-8.597.137-12.895.137H90.932c-4.298 0-8.597-.04-12.895-.137a320.093 320.093 0 0 1-11.48-.452 193.696 193.696 0 0 1-10.13-.836 116.71 116.71 0 0 1-8.863-1.306 75.942 75.942 0 0 1-7.653-1.818 49.07 49.07 0 0 1-6.501-2.397 37.038 37.038 0 0 1-5.47-3.026 30.938 30.938 0 0 1-4.524-3.714 30.615 30.615 0 0 1-3.738-4.529 36.766 36.766 0 0 1-3.03-5.443 50.903 50.903 0 0 1-2.4-6.494 75.567 75.567 0 0 1-1.829-7.634 121.69 121.69 0 0 1-1.298-8.832c-.374-3.37-.65-6.74-.846-10.12a317.535 317.535 0 0 1-.453-11.456 623.851 623.851 0 0 1-.137-12.87V97.014c0-4.293.049-8.577.137-12.87.079-3.822.236-7.634.453-11.456.197-3.38.472-6.75.846-10.11.324-2.967.757-5.914 1.298-8.842a75.568 75.568 0 0 1 1.83-7.634 51.46 51.46 0 0 1 2.4-6.494 37.27 37.27 0 0 1 3.03-5.443 31.05 31.05 0 0 1 3.737-4.52 30.384 30.384 0 0 1 4.525-3.723 37.039 37.039 0 0 1 5.469-3.026 50.494 50.494 0 0 1 6.501-2.397 75.943 75.943 0 0 1 7.653-1.818c2.931-.55 5.892-.982 8.863-1.297 3.364-.373 6.747-.648 10.13-.845a344.71 344.71 0 0 1 11.48-.452c4.298-.088 8.597-.137 12.895-.127H165.078z" fill-rule="evenodd" fill="url(#d)"/></g></svg>

<?xml version="1.0" standalone="no"?><!-- Generator: Gravit.io --><svg xmlns="http://www.w3.org/2000/svg" xmlns:xlink="http://www.w3.org/1999/xlink" style="isolation:isolate" viewBox="0 0 256 256" width="256" height="256"><g id="Group" filter="url(#zSMPlHx7GAM6PCW1OKj0JlrE5NssN2cE)"><linearGradient id="_lgradient_186" x1="0.2500000380462092" y1="0.03605778365647458" x2="0.750000029712876" y2="0.9020831730071567" gradientTransform="matrix(244.648,0,0,228.338,5.676,11.947)" gradientUnits="userSpaceOnUse"><stop offset="0%" stop-opacity="1" style="stop-color:rgb(246,17,17)"/><stop offset="48.271722%" stop-opacity="1" style="stop-color:rgb(255,79,79)"/><stop offset="100%" stop-opacity="1" style="stop-color:rgb(255,122,85)"/></linearGradient><path d=" M 165.685 11.947 C 239.74 11.947 250.324 22.504 250.324 96.491 L 250.324 155.742 C 250.324 229.728 239.74 240.285 165.685 240.285 L 90.315 240.285 C 16.26 240.285 5.676 229.728 5.676 155.742 L 5.676 96.491 C 5.676 22.504 16.26 11.947 90.315 11.947 L 165.685 11.947 L 165.685 11.947 Z " id="Path" fill="url(#_lgradient_186)"/></g><defs><filter id="zSMPlHx7GAM6PCW1OKj0JlrE5NssN2cE" x="-200%" y="-200%" width="400%" height="400%" filterUnits="objectBoundingBox" color-interpolation-filters="sRGB"><feGaussianBlur xmlns="http://www.w3.org/2000/svg" in="SourceGraphic" stdDeviation="4.294"/><feOffset xmlns="http://www.w3.org/2000/svg" dx="0" dy="4" result="pf_100_offsetBlur"/><feFlood xmlns="http://www.w3.org/2000/svg" flood-color="#000000" flood-opacity="0.4"/><feComposite xmlns="http://www.w3.org/2000/svg" in2="pf_100_offsetBlur" operator="in" result="pf_100_dropShadow"/><feBlend xmlns="http://www.w3.org/2000/svg" in="SourceGraphic" in2="pf_100_dropShadow" mode="normal"/></filter></defs><g opacity="0.4"><path d=" M 136.934 198.53 C 134.328 194.603 132.195 190.831 132.195 190.146 C 132.195 189.462 136.891 188.218 142.63 187.382 C 161.2 184.675 176.538 175.326 180.573 164.253 C 186.656 147.561 176.05 130.672 157.053 126.8 C 153.808 126.139 153.19 126.803 148.688 135.79 C 142.382 148.38 134.764 159.593 126.584 168.327 C 120.713 174.596 120.118 175.773 120.918 179.54 C 123.658 192.439 124.058 191.406 114.843 195.197 L 106.472 198.64 L 105.693 195.037 C 104.348 188.811 103.479 188.285 98.85 190.895 C 87.685 197.191 73.406 197.579 67.123 191.756 C 56.172 181.608 61.385 156.504 77.942 139.655 C 82.025 135.5 88.724 129.962 92.83 127.349 L 100.293 122.597 L 101.235 112.55 C 101.752 107.024 101.757 102.084 101.244 101.573 C 100.731 101.061 93.536 100.855 85.254 101.113 L 70.195 101.584 L 70.177 95.837 C 70.167 92.676 69.806 88.772 69.374 87.162 C 68.597 84.263 68.753 84.231 85.511 83.864 L 102.433 83.494 L 104.357 71.174 L 106.28 58.854 L 110.168 59.632 C 112.307 60.059 116.244 60.409 118.917 60.409 L 123.777 60.409 L 122.695 70.508 C 122.1 76.063 121.922 80.916 122.299 81.294 C 123.212 82.206 140.406 79.634 155.851 76.274 C 170.19 73.154 170.398 73.259 170.429 83.642 L 170.45 90.386 L 151.652 93.856 C 141.313 95.765 129.886 97.779 126.258 98.332 L 119.663 99.339 L 119.262 107.077 C 118.863 114.787 118.874 114.812 122.231 113.97 C 124.085 113.505 128.42 112.757 131.866 112.308 C 139.615 111.298 141.135 110.144 142.2 104.468 C 143.143 99.442 143.329 99.394 153.765 101.49 L 161.265 102.996 L 160.45 107.341 C 159.662 111.538 159.809 111.719 164.712 112.623 C 179.739 115.394 194.882 128.215 198.719 141.415 C 204.539 161.435 196.877 182.128 179.608 193.03 C 173.08 197.151 160.38 202.263 153.879 203.387 C 150.974 203.89 148.073 204.42 145.178 204.978 C 142.104 205.585 141.09 204.791 136.934 198.53 L 136.934 198.53 Z  M 87.238 177.843 C 89.71 177.134 94.085 174.923 96.962 172.93 L 102.191 169.306 L 101.283 156.109 C 100.783 148.851 100.057 142.603 99.671 142.224 C 98.512 141.09 85.379 155.922 82.881 161.187 C 79.029 169.304 78.385 179.132 81.706 179.132 C 82.277 179.132 84.767 178.552 87.238 177.843 Z  M 123.544 145.815 C 124.952 143.462 127.769 138.343 129.802 134.439 L 133.5 127.342 L 129.22 128.058 C 126.866 128.451 123.307 129.404 121.312 130.175 C 117.832 131.52 117.685 131.954 117.685 140.844 C 117.685 151.347 119.374 152.78 123.544 145.815 Z " fill-rule="evenodd" id="shadow" fill="rgb(0,0,0)"/></g><path d=" M 133.934 194.53 C 131.328 190.603 129.195 186.831 129.195 186.146 C 129.195 185.462 133.891 184.218 139.63 183.382 C 158.2 180.675 173.538 171.326 177.573 160.253 C 183.656 143.561 173.05 126.672 154.053 122.8 C 150.808 122.139 150.19 122.803 145.688 131.79 C 139.382 144.38 131.764 155.593 123.584 164.327 C 117.713 170.596 117.118 171.773 117.918 175.54 C 120.658 188.439 121.058 187.406 111.843 191.197 L 103.472 194.64 L 102.693 191.037 C 101.348 184.811 100.479 184.285 95.85 186.895 C 84.685 193.191 70.406 193.579 64.123 187.756 C 53.172 177.608 58.385 152.504 74.942 135.655 C 79.025 131.5 85.724 125.962 89.83 123.349 L 97.293 118.597 L 98.235 108.55 C 98.752 103.024 98.757 98.084 98.244 97.573 C 97.731 97.061 90.536 96.855 82.254 97.113 L 67.195 97.584 L 67.177 91.837 C 67.167 88.676 66.806 84.772 66.374 83.162 C 65.597 80.263 65.753 80.231 82.511 79.864 L 99.433 79.494 L 101.357 67.174 L 103.28 54.854 L 107.168 55.632 C 109.307 56.059 113.244 56.409 115.917 56.409 L 120.777 56.409 L 119.695 66.508 C 119.1 72.063 118.922 76.916 119.299 77.294 C 120.212 78.206 137.406 75.634 152.851 72.274 C 167.19 69.154 167.398 69.259 167.429 79.642 L 167.45 86.386 L 148.652 89.856 C 138.313 91.765 126.886 93.779 123.258 94.332 L 116.663 95.339 L 116.262 103.077 C 115.863 110.787 115.874 110.812 119.231 109.97 C 121.085 109.505 125.42 108.757 128.866 108.308 C 136.615 107.298 138.135 106.144 139.2 100.468 C 140.143 95.442 140.329 95.394 150.765 97.49 L 158.265 98.996 L 157.45 103.341 C 156.662 107.538 156.809 107.719 161.712 108.623 C 176.739 111.394 191.882 124.215 195.719 137.415 C 201.539 157.435 193.877 178.128 176.608 189.03 C 170.08 193.151 157.38 198.263 150.879 199.387 C 147.974 199.89 145.073 200.42 142.178 200.978 C 139.104 201.585 138.09 200.791 133.934 194.53 L 133.934 194.53 Z  M 84.238 173.843 C 86.71 173.134 91.085 170.923 93.962 168.93 L 99.191 165.306 L 98.283 152.109 C 97.783 144.851 97.057 138.603 96.671 138.224 C 95.512 137.09 82.379 151.922 79.881 157.187 C 76.029 165.304 75.385 175.132 78.706 175.132 C 79.277 175.132 81.767 174.552 84.238 173.843 Z  M 120.544 141.815 C 121.952 139.462 124.769 134.343 126.802 130.439 L 130.5 123.342 L 126.22 124.058 C 123.866 124.451 120.307 125.404 118.312 126.175 C 114.832 127.52 114.685 127.954 114.685 136.844 C 114.685 147.347 116.374 148.78 120.544 141.815 Z " fill-rule="evenodd" id="logo" fill="rgb(255,255,255)"/><g opacity="0.4"><linearGradient id="_lgradient_187" x1="0.5166666666666668" y1="0" x2="0.5166666666666666" y2="1.0000000000000002" gradientTransform="matrix(244.65,0,0,228.34,5.68,11.95)" gradientUnits="userSpaceOnUse"><stop offset="0%" stop-opacity="1" style="stop-color:rgb(255,255,255)"/><stop offset="12.5%" stop-opacity="0.09803922" style="stop-color:rgb(255,255,255)"/><stop offset="92.500001%" stop-opacity="0.09803922" style="stop-color:rgb(0,0,0)"/><stop offset="100%" stop-opacity="0.49803922" style="stop-color:rgb(0,0,0)"/></linearGradient><path d=" M 165.068 11.951 C 169.396 11.941 173.724 11.991 178.052 12.089 C 181.927 12.167 185.803 12.315 189.678 12.541 C 193.131 12.737 196.583 13.022 200.026 13.395 C 203.085 13.73 206.144 14.181 209.174 14.741 C 211.889 15.243 214.574 15.881 217.22 16.657 C 219.62 17.355 221.971 18.219 224.243 19.241 C 226.358 20.184 228.384 21.304 230.302 22.591 C 232.142 23.829 233.863 25.244 235.437 26.806 C 237.001 28.378 238.417 30.088 239.656 31.925 C 240.945 33.841 242.066 35.865 243.02 37.967 C 244.043 40.247 244.909 42.585 245.617 44.972 C 246.394 47.615 247.034 50.297 247.535 53.009 C 248.096 56.035 248.548 59.081 248.883 62.136 C 249.257 65.575 249.542 69.014 249.739 72.462 C 249.965 76.323 250.112 80.194 250.201 84.055 C 250.289 88.378 250.339 92.701 250.329 97.014 L 250.329 155.226 C 250.339 159.549 250.289 163.862 250.201 168.185 C 250.112 172.056 249.965 175.917 249.739 179.778 C 249.542 183.226 249.257 186.675 248.883 190.104 C 248.548 193.159 248.096 196.215 247.535 199.241 C 247.034 201.943 246.394 204.625 245.617 207.268 C 244.909 209.655 244.043 212.003 243.02 214.273 C 242.066 216.385 240.945 218.399 239.656 220.315 C 238.417 222.152 237.001 223.872 235.437 225.434 C 233.863 226.996 232.142 228.411 230.302 229.649 C 228.384 230.936 226.358 232.056 224.243 232.999 C 221.971 234.021 219.62 234.885 217.22 235.593 C 214.574 236.369 211.889 237.007 209.174 237.499 C 206.144 238.068 203.085 238.51 200.026 238.845 C 196.583 239.218 193.131 239.503 189.678 239.699 C 185.803 239.925 181.927 240.073 178.052 240.161 C 173.724 240.249 169.396 240.299 165.068 240.289 L 90.942 240.289 C 86.614 240.299 82.286 240.249 77.958 240.161 C 74.083 240.073 70.207 239.925 66.332 239.699 C 62.879 239.503 59.427 239.218 55.984 238.845 C 52.925 238.51 49.866 238.068 46.836 237.499 C 44.121 237.007 41.436 236.369 38.79 235.593 C 36.39 234.885 34.039 234.021 31.767 232.999 C 29.652 232.056 27.626 230.936 25.708 229.649 C 23.868 228.411 22.147 226.996 20.573 225.434 C 19.009 223.872 17.593 222.152 16.354 220.315 C 15.065 218.399 13.944 216.385 12.99 214.273 C 11.967 212.003 11.101 209.655 10.393 207.268 C 9.616 204.625 8.976 201.943 8.475 199.241 C 7.914 196.215 7.462 193.159 7.127 190.104 C 6.753 186.675 6.468 183.226 6.271 179.778 C 6.045 175.917 5.898 172.056 5.809 168.185 C 5.721 163.862 5.671 159.549 5.681 155.226 L 5.681 97.014 C 5.671 92.701 5.721 88.378 5.809 84.055 C 5.898 80.194 6.045 76.323 6.271 72.462 C 6.468 69.014 6.753 65.575 7.127 62.136 C 7.462 59.081 7.914 56.035 8.475 53.009 C 8.976 50.297 9.616 47.615 10.393 44.972 C 11.101 42.585 11.967 40.247 12.99 37.967 C 13.944 35.865 15.065 33.841 16.354 31.925 C 17.593 30.088 19.009 28.378 20.573 26.806 C 22.147 25.244 23.868 23.829 25.708 22.591 C 27.626 21.304 29.652 20.184 31.767 19.241 C 34.039 18.219 36.39 17.355 38.79 16.657 C 41.436 15.881 44.121 15.243 46.836 14.741 C 49.866 14.181 52.925 13.73 55.984 13.395 C 59.427 13.022 62.879 12.737 66.332 12.541 C 70.207 12.315 74.083 12.167 77.958 12.089 C 82.286 11.991 86.614 11.941 90.942 11.951 L 165.068 11.951 Z  M 165.078 15.96 C 169.376 15.95 173.675 15.999 177.973 16.087 C 181.8 16.176 185.626 16.323 189.452 16.539 C 192.836 16.736 196.219 17.011 199.583 17.384 C 202.554 17.699 205.515 18.131 208.446 18.681 C 211.023 19.153 213.58 19.762 216.099 20.499 C 218.322 21.147 220.495 21.953 222.6 22.896 C 224.509 23.751 226.338 24.763 228.069 25.922 C 229.692 27.013 231.207 28.26 232.594 29.646 C 233.981 31.031 235.23 32.544 236.332 34.165 C 237.492 35.894 238.506 37.712 239.361 39.608 C 240.306 41.72 241.112 43.892 241.761 46.102 C 242.509 48.617 243.109 51.162 243.591 53.736 C 244.132 56.664 244.565 59.611 244.889 62.578 C 245.263 65.938 245.539 69.308 245.735 72.688 C 245.952 76.51 246.109 80.322 246.188 84.144 C 246.276 88.437 246.325 92.721 246.325 97.014 C 246.325 97.014 246.325 97.014 246.325 97.014 L 246.325 155.226 C 246.325 155.226 246.325 155.226 246.325 155.226 C 246.325 159.519 246.276 163.803 246.188 168.096 C 246.109 171.918 245.952 175.74 245.735 179.552 C 245.539 182.932 245.263 186.302 244.889 189.672 C 244.565 192.629 244.132 195.576 243.591 198.504 C 243.109 201.078 242.509 203.623 241.761 206.138 C 241.112 208.358 240.306 210.52 239.361 212.632 C 238.506 214.528 237.492 216.356 236.332 218.075 C 235.23 219.706 233.981 221.219 232.594 222.604 C 231.207 223.98 229.692 225.227 228.069 226.318 C 226.338 227.477 224.509 228.489 222.6 229.344 C 220.495 230.297 218.322 231.093 216.099 231.741 C 213.58 232.478 211.023 233.087 208.446 233.559 C 205.515 234.109 202.554 234.541 199.583 234.865 C 196.219 235.229 192.836 235.514 189.452 235.701 C 185.626 235.917 181.8 236.074 177.973 236.153 C 173.675 236.251 169.376 236.29 165.078 236.29 C 165.078 236.29 165.078 236.29 165.068 236.29 L 90.942 236.29 C 90.932 236.29 90.932 236.29 90.932 236.29 C 86.634 236.29 82.335 236.251 78.037 236.153 C 74.21 236.074 70.384 235.917 66.558 235.701 C 63.174 235.514 59.791 235.229 56.427 234.865 C 53.456 234.541 50.495 234.109 47.564 233.559 C 44.987 233.087 42.43 232.478 39.911 231.741 C 37.688 231.093 35.515 230.297 33.41 229.344 C 31.501 228.489 29.672 227.477 27.941 226.318 C 26.318 225.227 24.803 223.98 23.416 222.604 C 22.029 221.219 20.78 219.706 19.678 218.075 C 18.518 216.356 17.504 214.528 16.649 212.632 C 15.704 210.52 14.898 208.358 14.249 206.138 C 13.501 203.623 12.901 201.078 12.419 198.504 C 11.878 195.576 11.445 192.629 11.121 189.672 C 10.747 186.302 10.472 182.932 10.275 179.552 C 10.058 175.74 9.901 171.918 9.822 168.096 C 9.734 163.803 9.685 159.519 9.685 155.226 C 9.685 155.226 9.685 155.226 9.685 155.226 L 9.685 97.014 C 9.685 97.014 9.685 97.014 9.685 97.014 C 9.685 92.721 9.734 88.437 9.822 84.144 C 9.901 80.322 10.058 76.51 10.275 72.688 C 10.472 69.308 10.747 65.938 11.121 62.578 C 11.445 59.611 11.878 56.664 12.419 53.736 C 12.901 51.162 13.501 48.617 14.249 46.102 C 14.898 43.892 15.704 41.72 16.649 39.608 C 17.504 37.712 18.518 35.894 19.678 34.165 C 20.78 32.544 22.029 31.031 23.416 29.646 C 24.803 28.26 26.318 27.013 27.941 25.922 C 29.672 24.763 31.501 23.751 33.41 22.896 C 35.515 21.953 37.688 21.147 39.911 20.499 C 42.43 19.762 44.987 19.153 47.564 18.681 C 50.495 18.131 53.456 17.699 56.427 17.384 C 59.791 17.011 63.174 16.736 66.558 16.539 C 70.384 16.323 74.21 16.176 78.037 16.087 C 82.335 15.999 86.634 15.95 90.932 15.96 C 90.932 15.96 90.932 15.96 90.942 15.96 L 165.068 15.96 C 165.078 15.96 165.078 15.96 165.078 15.96 Z " fill-rule="evenodd" id="highlight" fill="url(#_lgradient_187)"/></g></svg>
